src/assets/outline/Mirror.svg

<?xml version="1.0" encoding="UTF-8"?>
<svg width="24" height="24" viewBox="0 0 24 24" xmlns="http://www.w3.org/2000/svg">
 <path d="m12 18.75c-4.83 0-8.75-3.93-8.75-8.75s3.92-8.75 8.75-8.75 8.75 3.93 8.75 8.75-3.92 8.75-8.75 8.75zm0-16c-4 0-7.25 3.25-7.25 7.25s3.25 7.25 7.25 7.25 7.25-3.25 7.25-7.25-3.25-7.25-7.25-7.25z"/>
 <path d="m18 22.75h-12c-0.41 0-0.75-0.34-0.75-0.75s0.34-0.75 0.75-0.75h12c0.41 0 0.75 0.34 0.75 0.75s-0.34 0.75-0.75 0.75z"/>
</svg>

<svg width="24" height="24" viewBox="0 0 24 24"  xmlns="http://www.w3.org/2000/svg">
<path d="M12 18.75C7.17 18.75 3.25 14.82 3.25 10C3.25 5.18 7.17 1.25 12 1.25C16.83 1.25 20.75 5.18 20.75 10C20.75 14.82 16.83 18.75 12 18.75ZM12 2.75C8 2.75 4.75 6 4.75 10C4.75 14 8 17.25 12 17.25C16 17.25 19.25 14 19.25 10C19.25 6 16 2.75 12 2.75Z" />
<path d="M18 22.75H6C5.59 22.75 5.25 22.41 5.25 22C5.25 21.59 5.59 21.25 6 21.25H18C18.41 21.25 18.75 21.59 18.75 22C18.75 22.41 18.41 22.75 18 22.75Z" />
</svg>
